assets/resources/icons/services/AireAcondicionado.svg

<svg width="50" height="50" viewBox="0 0 50 50" fill="none" xmlns="http://www.w3.org/2000/svg">
<path d="M42.1999 8.30042H7.79985C5.49985 8.30042 3.59985 10.2004 3.59985 12.5004V21.1004C3.59985 21.7504 3.79985 22.3004 3.94985 22.7504L3.99985 22.8004L4.09985 22.9504L5.84985 26.7004C5.89985 26.7504 5.94985 26.8004 5.99985 26.9004C6.64985 28.3004 8.09985 29.2004 9.69985 29.2004H13.5999V27.0504H9.69985C8.79985 27.0504 8.14985 26.6504 7.84985 25.9504L7.79985 25.8004L6.39985 22.9004H43.6499L42.1499 26.0004C41.8499 26.7004 41.1999 27.1004 40.2999 27.1004H36.3999V29.2504H40.2999C41.8999 29.2504 43.3499 28.3504 43.9999 26.9504L44.1499 26.6504H44.1999L46.0499 22.8004C46.1999 22.3504 46.3999 21.8504 46.3999 21.1504V12.5004C46.3999 10.2004 44.4999 8.30042 42.1999 8.30042ZM44.2499 20.8004H5.74985V12.5004C5.74985 11.3504 6.64985 10.4504 7.79985 10.4504H42.1999C43.3499 10.4504 44.2499 11.3504 44.2499 12.5004V20.8004ZM18.7499 27.0504C18.1499 27.0504 17.6999 27.5504 17.6999 28.1004C17.6999 28.6504 18.1999 29.1504 18.7499 29.1504C19.2999 29.1504 19.7999 28.6504 19.7999 28.1004C19.7999 27.5504 19.3499 27.0504 18.7499 27.0504ZM24.9999 27.0504C24.3999 27.0504 23.9499 27.5504 23.9499 28.1004C23.9499 28.6504 24.4499 29.1504 24.9999 29.1504C25.5499 29.1504 26.0499 28.6504 26.0499 28.1004C26.0499 27.5504 25.5999 27.0504 24.9999 27.0504ZM31.2499 27.0504C30.6499 27.0504 30.1999 27.5504 30.1999 28.1004C30.1999 28.6504 30.6999 29.1504 31.2499 29.1504C31.7999 29.1504 32.2999 28.6504 32.2999 28.1004C32.2999 27.5504 31.8499 27.0504 31.2499 27.0504ZM17.1999 31.7504C16.5999 31.7504 16.1499 32.2504 16.1499 32.8004C16.1499 33.4004 16.6499 33.8504 17.1999 33.8504C17.7999 33.8504 18.2499 33.3504 18.2499 32.8004C18.2499 32.2504 17.7499 31.7504 17.1999 31.7504ZM24.9999 31.7504C24.3999 31.7504 23.9499 32.2504 23.9499 32.8004C23.9499 33.4004 24.4499 33.8504 24.9999 33.8504C25.5499 33.8504 26.0499 33.3504 26.0499 32.8004C26.0499 32.2504 25.5999 31.7504 24.9999 31.7504ZM32.7999 31.7504C32.1999 31.7504 31.7499 32.2504 31.7499 32.8004C31.7499 33.4004 32.2499 33.8504 32.7999 33.8504C33.3999 33.8504 33.8499 33.3504 33.8499 32.8004C33.8999 32.2504 33.3999 31.7504 32.7999 31.7504ZM15.5999 36.4504C14.9999 36.4504 14.5499 36.9504 14.5499 37.5004C14.5499 38.0504 15.0499 38.5504 15.5999 38.5504C16.1499 38.5504 16.6499 38.0504 16.6499 37.5004C16.6499 36.9504 16.1999 36.4504 15.5999 36.4504ZM24.9999 36.4504C24.3999 36.4504 23.9499 36.9504 23.9499 37.5004C23.9499 38.0504 24.4499 38.5504 24.9999 38.5504C25.5499 38.5504 26.0499 38.0504 26.0499 37.5004C26.0499 36.9504 25.5999 36.4504 24.9999 36.4504ZM34.3999 36.4504C33.7999 36.4504 33.3499 36.9504 33.3499 37.5004C33.3499 38.0504 33.8499 38.5504 34.3999 38.5504C34.9499 38.5504 35.4499 38.0504 35.4499 37.5004C35.4499 36.9504 34.9499 36.4504 34.3999 36.4504ZM12.4999 41.1004C11.8999 41.1004 11.4499 41.6004 11.4499 42.1504C11.4499 42.7504 11.9499 43.2004 12.4999 43.2004C13.0499 43.2004 13.5499 42.7004 13.5499 42.1504C13.5499 41.6004 13.0999 41.1004 12.4999 41.1004ZM24.9999 41.1004C24.3999 41.1004 23.9499 41.6004 23.9499 42.1504C23.9499 42.7504 24.4499 43.2004 24.9999 43.2004C25.5499 43.2004 26.0499 42.7004 26.0499 42.1504C26.0499 41.6004 25.5999 41.1004 24.9999 41.1004ZM37.4999 41.1004C36.8999 41.1004 36.4499 41.6004 36.4499 42.1504C36.4499 42.7504 36.9499 43.2004 37.4999 43.2004C38.0499 43.2004 38.5499 42.7004 38.5499 42.1504C38.5499 41.6004 38.0999 41.1004 37.4999 41.1004Z" fill="#876671"/>
</svg>

<?xml version="1.0" encoding="utf-8"?>
<!-- Generator: Adobe Illustrator 25.0.0, SVG Export Plug-In . SVG Version: 6.00 Build 0)  -->
<svg version="1.1" id="Capa_1" xmlns="http://www.w3.org/2000/svg" xmlns:xlink="http://www.w3.org/1999/xlink" x="0px" y="0px"
	 viewBox="0 0 50 50" style="enable-background:new 0 0 50 50;" xml:space="preserve">
<style type="text/css">
	.st0{fill:#A52016;}
</style>
<path class="st0" d="M42.2,8.3H7.8c-2.3,0-4.2,1.9-4.2,4.2v8.6c0,0.6,0.2,1.2,0.4,1.6l0,0L4.1,23l1.8,3.8c0,0.1,0.1,0.1,0.1,0.2
	c0.7,1.4,2.1,2.3,3.7,2.3h3.9v-2.1H9.7c-0.9,0-1.6-0.4-1.8-1.1l-0.1-0.1l-1.4-2.9h37.3L42.1,26c-0.3,0.7-0.9,1.1-1.8,1.1h-3.9v2.1
	h3.9c1.6,0,3-0.9,3.7-2.3l0.1-0.3h0.1l1.8-3.9c0.2-0.4,0.3-0.9,0.3-1.6v-8.7C46.4,10.2,44.5,8.3,42.2,8.3z M44.2,20.8H5.7v-8.3
	c0-1.1,0.9-2,2.1-2h34.4c1.1,0,2,0.9,2,2V20.8z M18.7,27.1c-0.6,0-1.1,0.5-1.1,1.1c0,0.5,0.5,1,1.1,1c0.5,0,1-0.5,1-1
	C19.8,27.6,19.3,27.1,18.7,27.1z M25,27.1c-0.6,0-1.1,0.5-1.1,1.1c0,0.5,0.5,1,1.1,1c0.5,0,1-0.5,1-1C26,27.6,25.6,27.1,25,27.1z
	 M31.2,27.1c-0.6,0-1.1,0.5-1.1,1.1c0,0.5,0.5,1,1.1,1c0.5,0,1-0.5,1-1C32.3,27.6,31.8,27.1,31.2,27.1z M17.2,31.8c-0.6,0-1,0.5-1,1
	c0,0.6,0.5,1,1,1c0.6,0,1.1-0.5,1.1-1S17.7,31.8,17.2,31.8z M25,31.8c-0.6,0-1.1,0.5-1.1,1c0,0.6,0.5,1,1.1,1c0.5,0,1-0.5,1-1
	S25.6,31.8,25,31.8z M32.8,31.8c-0.6,0-1,0.5-1,1c0,0.6,0.5,1,1,1c0.6,0,1-0.5,1-1C33.9,32.3,33.4,31.8,32.8,31.8z M15.6,36.5
	c-0.6,0-1.1,0.5-1.1,1s0.5,1,1.1,1s1.1-0.5,1.1-1S16.2,36.5,15.6,36.5z M25,36.5c-0.6,0-1.1,0.5-1.1,1s0.5,1,1.1,1c0.5,0,1-0.5,1-1
	S25.6,36.5,25,36.5z M34.4,36.5c-0.6,0-1,0.5-1,1s0.5,1,1,1c0.6,0,1.1-0.5,1.1-1S34.9,36.5,34.4,36.5z M12.5,41.1
	c-0.6,0-1.1,0.5-1.1,1c0,0.6,0.5,1.1,1.1,1.1s1.1-0.5,1.1-1.1C13.5,41.6,13.1,41.1,12.5,41.1z M25,41.1c-0.6,0-1.1,0.5-1.1,1
	c0,0.6,0.5,1.1,1.1,1.1c0.5,0,1-0.5,1-1.1C26,41.6,25.6,41.1,25,41.1z M37.5,41.1c-0.6,0-1,0.5-1,1c0,0.6,0.5,1.1,1,1.1s1-0.5,1-1.1
	C38.5,41.6,38.1,41.1,37.5,41.1z"/>
</svg>
